packages/components/src/telekom/icons/home/wifi-connected/selected.svg

<?xml version="1.0" encoding="UTF-8"?>
<svg width="24px" height="24px" viewBox="0 0 24 24" version="1.1" xmlns="http://www.w3.org/2000/svg" xmlns:xlink="http://www.w3.org/1999/xlink">
    <title>/svg/icon/home/wifi-connected/selected</title>
    <g id="icon/home/wifi-connected/selected" stroke="none" stroke-width="1" fill="none" fill-rule="evenodd">
        <path d="M11.9996,17.9994 C13.1046,17.9994 13.9996,18.8954 13.9996,19.9994 C13.9996,21.1054 13.1046,21.9994 11.9996,21.9994 C10.8956,21.9994 9.9996,21.1054 9.9996,19.9994 C9.9996,18.8954 10.8956,17.9994 11.9996,17.9994 Z M10.9196,13.6004 C11.0686,14.2824 11.3146,14.9304 11.6426,15.5254 C10.1549,15.6432 8.86936,16.47578 8.14007587,17.6887637 L8.0296,17.8834 L6.5936,16.3934 C7.5686,14.9354 9.1196,13.9024 10.9196,13.6004 Z M17.9376,6.3744 C21.0786,6.3744 23.6246,8.9214 23.6246,12.0624 C23.6246,15.2034 21.0786,17.7494 17.9376,17.7494 C14.7966,17.7494 12.2496,15.2034 12.2496,12.0624 C12.2496,8.9214 14.7966,6.3744 17.9376,6.3744 Z M11.4376,9.0164 C11.1346,9.6584 10.9256,10.3504 10.8256,11.0784 C8.49073043,11.3854435 6.44040529,12.5882072 5.02381106,14.3287531 L4.8346,14.5694 L3.4276,13.1104 C5.3336,10.7414 8.1996,9.1804 11.4376,9.0164 Z M19.8326,10.0474 L17.2676,12.6114 L15.9856,11.3304 C15.7186,11.0644 15.2866,11.0644 15.0206,11.3304 C14.7536,11.5964 14.7536,12.0284 15.0206,12.2954 L17.2676,14.5424 L20.7976,11.0124 C21.0646,10.7454 21.0646,10.3134 20.7976,10.0474 C20.5306,9.7804 20.0986,9.7804 19.8326,10.0474 Z M11.9996,4.4994 C13.4686,4.4994 14.8896,4.7044 16.2356,5.0874 C15.1436,5.3544 14.1476,5.8644 13.3146,6.5684 C12.8816,6.5264 12.4436,6.4994 11.9996,6.4994 C7.98505455,6.4994 4.38142553,8.25402259 1.90904909,11.0356371 L1.6806,11.2994 L0.2866,9.8554 C3.1286,6.5764 7.3206,4.4994 11.9996,4.4994 Z" id="Icon" fill="#000000"></path>
    </g>
</svg>

<svg width="24" height="24" xmlns="http://www.w3.org/2000/svg"><path d="M12 18a2 2 0 110 4 2 2 0 010-4zm-1.08-4.4a7.15 7.15 0 00.723 1.925A4.495 4.495 0 008.14 17.69l-.11.194-1.436-1.49A6.496 6.496 0 0110.92 13.6zm7.018-7.226a5.688 5.688 0 11-.002 11.376 5.688 5.688 0 01.002-11.376zm-6.5 2.642a7.08 7.08 0 00-.612 2.062 8.992 8.992 0 00-5.802 3.25l-.19.241-1.406-1.459a10.977 10.977 0 018.01-4.094zm8.395 1.031l-2.565 2.564-1.282-1.28a.683.683 0 00-.965.964l2.247 2.247 3.53-3.53a.681.681 0 10-.965-.965zM12 4.5c1.469 0 2.89.205 4.236.588a7.148 7.148 0 00-2.921 1.481A13.602 13.602 0 0012 6.5a13.463 13.463 0 00-10.091 4.537l-.228.263L.287 9.855A15.459 15.459 0 0112 4.5z" fill-rule="evenodd"/></svg>
